X: 63
T:Railroading through the Rockies
M:C
L:1/8
R:Reel
S:https://tunearch.org/wiki/Railroad_through_the_Rocky_Mountains
K:D
(^G2||"D"A2)A2 (A=c)AG|FD2(D D3) (F|"A"E2)A,2 A,[A,E]A,A,|EA,2 (A, A,2)(A2|
"D"A2)A2 (A=c)AG|FD2(D D3)(F|"A"E2)A,2 [A,E]A, A,2|"D"D6 FG|
"D"A2 FG (A=c)AG|FD2(D D4)|"A"A4 A3F|GE2(E E2)(A2|
"D"A2)A2 (A=c)AG|FD2(D D3)(F|"A"E2)[A,2E2] [A,E][A,E] A,2|"D"D6 ((3ABc|
|:"D"d2) de (fe) d2|"G"(ed)ef (gf)e2|"D"d2 de (fe)d2|"A"e(cB)(c A2) ((3ABc|
"D"d2) de (fe)d2|"G"(ed)e(f g2) ga|"A"b2 ag (ed)c2|"D"d8:|

